X: 31333
T: COTILLION No. 25. BATTLE OF NEW ORLEANS tune 6
T: the VICTORY IS OURS
%R: reel
B: Elias Howe "The Musician's Companion" Part 3 1844 p.133 #3
S: http://imslp.org/wiki/The_Musician's_Companion_(Howe,_Elias)
Z: 2015 John Chambers <jc:trillian.mit.edu>
M: 2/4
L: 1/16
K: G
% - - - - - - - - - - - - - - - - - - - - - - - - - - - - -
d2 |\
dcBc d2d2 | e4 d2g2 | gfed ^cdef | gfga b2d2 |\
dcBc d2d2 | e4 d2g2 | gfed ^cdef | g4 g2 H|]\
g2 | G2g2 G2g2 | GABc d2g2 |
f8 | gfga b2g2 |\
G2g2 G2g2 | gabc' d'2g2 | f8 | g4 z2G2 |\
e4 g2B2 | e4 g2B2 | e2g2e2g2 | f2b2 B2b2 |\
e4 g2B2 | e4 g2B2 | f2b2 f2b2 | e4 "^D.C."z2 |]
% - - - - - - - - - - Dance description - - - - - - - - - -
%%begintext align
%% Grand right and left,
%% all balance and turn partners,
%% grand chain,
%% all promenade.
%%endtext
% - - - - - - - - - - - - - - - - - - - - - - - - - - - - -
%%sep 1 1 300
